X: 2
T: Blackbird From Clough, The
Z: ceolachan
S: https://thesession.org/tunes/12025#setting23842
R: barndance
M: 4/4
L: 1/8
K: Bmin
|: B>c |d2 d>E F2 F>^E | F2 F>E F<AA>c |\
d2 d>E F2 (3ABc | d>cB<^A B2 :|
B>^A |B>AB>c d2 c>d | e>c (3ABc e>cB>^A |\
B>A (3ABc (3ded c>d | e>cB<c B2 B>^A |
B>AB>c d2 c>d | e>cA>c e2 (3cde |\
f>Ae>A d2 (3cBA | d>cB<^A B2 |]
